assets/images/icon/iconic/others/badges/spotify-badge.svg

<svg height="44" viewBox="0 0 167 44" width="167" xmlns="http://www.w3.org/2000/svg"><g fill="none" transform="translate(1 1)"><rect fill="#fff" height="42" rx="8" stroke="#9aa0a6" stroke-width=".5" width="165"/><path d="m5.49757274 6.11293841c2.76045889.67503108 3.88620565 1.72287339 3.88620565 3.6174982 0 2.24175219-1.70350568 3.69029559-4.3397009 3.69029559-1.86349802 0-3.59019606-.6658918-4.99440128-1.9262964-.06001675-.0532588-.06659828-.1452798-.01457323-.2068898l1.24045179-1.48446952c.02538572-.03072621.06189724-.04931949.10169953-.05262845.0379218-.00220593.07897771.00976943.1089077.03561087 1.20676128 1.0508362 2.28565255 1.4988084 3.60806028 1.4988084 1.1907771 0 1.93072273-.5180911 1.93072273-1.35148017 0-.75224049-.36589909-1.17279552-2.53402571-1.67497193-2.54734464-.61909356-4.0214388-1.42112622-4.0214388-3.68619877 0-2.11222942 1.70883359-3.58850525 4.15526269-3.58850525 1.66385994 0 3.08733999.49587361 4.35145323 1.51582589.06127048.04947716.07365058.13834671.02820672.20295052l-1.10631526 1.56813934c-.02334857.0330897-.05829337.05483438-.09793911.06082206-.03964462.0063028-.079917-.00330895-.1120408-.02741713-1.0622819-.79636021-2.07520288-1.18319518-3.09689908-1.18319518-1.0539761 0-1.76289512.50926712-1.76289512 1.26639227 0 .8010872.40350655 1.18240728 2.66925897 1.72570946zm11.76407686 2.53924491c0-1.57412702-1.002578-2.71619622-2.383278-2.71619622-1.387282 0-2.4337361 1.16728051-2.4337361 2.71619622 0 1.54907328 1.0464541 2.71619618 2.4337361 2.71619618 1.4032647 0 2.383278-1.1163853 2.383278-2.71619618zm-1.9136428-4.78619685c2.1231533 0 4.2724762 1.6439306 4.2724762 4.78619685 0 3.14163588-2.1493229 4.78509378-4.2724762 4.78509378-1.1423561 0-2.0797466-.42607-2.8527571-1.2983789v3.6606723c0 .0824093-.066442.1495343-.1483961.1495343h-2.028663c-.0819541 0-.1482389-.067125-.1482389-.1495343v-11.59748669c0-.08240919.0662848-.14953417.1482389-.14953417h2.028663c.0819541 0 .1483961.06712498.1483961.14953417v1.04374545c.7728533-.92730098 1.7100877-1.37984279 2.8527571-1.37984279zm9.7817989 7.51909553c1.4682961 0 2.5340257-1.1345059 2.5340257-2.69870596 0-1.55900025-1.1038076-2.7340017-2.56756-2.7340017-1.4587371 0-2.517258 1.13545139-2.517258 2.69980898 0 1.55789718 1.0964428 2.73289868 2.5507923 2.73289868zm0-7.51909553c2.7252018 0 4.8591675 2.10230254 4.8591675 4.78619685 0 2.69287588-2.1486962 4.80289928-4.8927018 4.80289928-2.7154856 0-4.8428704-2.0948967-4.8428704-4.76870656 0-2.7032755 2.1421142-4.82038957 4.8764047-4.82038957zm10.6981912.18656317c.0819553 0 .1479267.06712498.1479267.14953417v1.75328437c0 .08225174-.0659714.14937661-.1479267.14937661h-2.2325303v4.21705301c0 .6660496.2905246.9630695.9413075.9630695.4223114 0 .8001189-.0912331 1.1909343-.2889839.0452867-.0225325.1002885-.0211144.1444791.0067756.0437189.027102.0705151.0756337.0705151.1271591v1.6696146c0 .0532587-.0288334.1033661-.07506.1293652-.5689848.3244371-1.1727561.4755471-1.9004799.4755471-1.7896914 0-2.6971524-.929507-2.6971524-2.7628371v-4.53676311h-.9754685c-.0817981 0-.1477695-.06712487-.1477695-.14937661v-1.75328437c0-.08240919.0659714-.14953417.1477695-.14953417h.9754685v-2.29516852c0-.08240919.0667553-.14937661.1488666-.14937661h2.0285058c.0819552 0 .1480839.06696742.1480839.14937661v2.29516852zm7.7782094.00898152h3.4657742c.0615849 0 .1169.03813203.1385248.09611782l2.3698018 6.21819542 2.1635829-6.21409856c.0206848-.05987671.0774105-.10021468.1405609-.10021468h2.1120276c.0492048 0 .0941781.02442341.1220704.06476138.0280507.04096831.033221.09280885.0156706.13881938l-3.51968 9.14537828c-.7300743 1.8876918-1.5580867 2.5895098-3.0561561 2.5895098-.8007467 0-1.4488647-.166867-2.1667162-.5577988-.0686352-.0371866-.0965286-.1213291-.0637781-.1930236l.6876076-1.5169289c.0164544-.0379744.0490487-.0668098.0877534-.080676.0391752-.0121329.0819552-.008824.1181533.0111874.3848601.2117745.7612571.3190799 1.1186942.3190799.4422124 0 .7661153-.1462252 1.0955029-.8812905l-2.9016486-6.99580471h-1.8942113v6.99769551c0 .0824093-.0667553.1493767-.1487105.1493767h-2.0286619c-.081798 0-.1479267-.0669674-.1479267-.1493767v-6.99769551h-.9746846c-.0817992 0-.1488666-.06712487-.1488666-.14937661v-1.7622659c0-.08225163.0670674-.1493766.1488666-.1493766h.9746846v-.43174248c0-2.00634218.9903563-3.06742033 2.8643534-3.06742033.7700334 0 1.2843286.12353506 1.6862685.24360361.0628371.01938107.1048333.07768209.1048333.14323137v1.71909153c0 .04790146-.0220942.09312408-.0612705.12132913-.038078.02820515-.0869695.03561086-.1338227.02079933-.3804725-.12763193-.720202-.21208961-1.14314-.21208961-.7092324 0-1.0254572.36981739-1.0254572 1.19910974zm-4.5092523-.00898152c.0817991 0 .1485533.06712498.1485533.14953417v8.90035649c0 .0824093-.0667542.1493767-.1485533.1493767h-2.028818c-.0819552 0-.1485533-.0669674-.1485533-.1493767v-8.90035649c0-.08240919.0665981-.14953417.1485533-.14953417zm-1.0041447-4.05254964c.8034094 0 1.4549761.65438931 1.4549761 1.46256721 0 .80849302-.6515667 1.46351256-1.4549761 1.46351256-.8035677 0-1.4559171-.65501954-1.4559171-1.46351256 0-.8081779.6523494-1.46256721 1.4559171-1.46256721zm17.8564872 4.93793696h-.3716961v.47665009h.3716961c.1855353 0 .2963239-.09123315.2963239-.23856138 0-.15504918-.1107886-.23808871-.2963239-.23808871zm.2410077.67991573.403821.56851349h-.3405134l-.3635486-.52139993h-.3124628v.52139993h-.285041v-1.50684448h.6683333c.3480354 0 .5771334.17899991.5771334.48058941 0 .24707012-.1419724.39802243-.3477219.45774158zm-.3165371-1.43987706c-.7313276 0-1.2847991.58458561-1.2847991 1.30042733 0 .71536905.5495533 1.29223383 1.2772772 1.29223383.7311704 0 1.2851113-.58427061 1.2851113-1.30042745 0-.7155266-.5498666-1.29223371-1.2775894-1.29223371zm-.0075219 2.73620764c-.80294 0-1.4277105-.64840162-1.4277105-1.43578031 0-.78753613.6329191-1.44318602 1.4352324-1.44318602.8027827 0 1.4277105.64824407 1.4277105 1.4349924 0 .78737858-.6324486 1.44397393-1.4352324 1.44397393z" fill="#1ed760" transform="translate(43 18)"/><path d="m21.0000836 7c7.7321105 0 13.9999164 6.2678433 13.9999164 13.9998328 0 7.7324911-6.2678059 14.0001672-13.9999164 14.0001672-7.7319433 0-14.0000836-6.2676761-14.0000836-14.0001672 0-7.7319895 6.2681403-13.9998328 14.0000836-13.9998328zm-7.3075204 17.6701978c-.4804078.1122411-.7797454.6023545-.6698404 1.0942188.1093931.4916892.5870703.8000457 1.066454.6872794 4.9747376-1.1660111 9.1989126-.6906064 12.5551112 1.4139568.419482.2633549.9679832.1278252 1.2246557-.304154.2568432-.4307533.1245818-.9937095-.2954123-1.2568894-3.7669771-2.3617895-8.4369159-2.9114379-13.8809682-1.6344116zm-.9189761-4.8203362c-.575346.1876915-.900585.8383552-.7267792 1.455592.1749746.6159853.7838796.964019 1.3603944.7775788 4.4453238-1.4446879 10.174908-.7284216 13.9323545 1.744458.5124018.3371296 1.1832492.1649896 1.4993055-.3843206.3150545-.5480591.1537706-1.2666492-.3586313-1.6044938-4.3155955-2.8395035-10.6283728-3.6385328-15.7066439-1.9888144zm-.840929-4.0015828c-.6946434.2026459-1.0861666.9070741-.8758108 1.5739693.2103556.6665731.9444196 1.0428695 1.6385596.8407068 4.3226909-1.259852 11.7918258-1.0224115 16.3200077 1.5599549.6228473.3559997 1.4298816.1583474 1.8002685-.441214.3702192-.5985948.1653992-1.3729342-.4591255-1.7289338-5.2129281-2.9715498-13.4617543-3.2508727-18.4238995-1.8044832z" fill="#1ed760"/><g fill="#5f6368" transform="translate(44 7.75)"><path d="m3.958 6.661h-3.722v-5.967h.926v5.115h2.796z"/><path d="m5.0345.8267c0-.3105.2441-.5459.5747-.5459.3311 0 .5747.2354.5747.5459 0 .3057-.2437.5415-.5747.5415-.3306 0-.5747-.2359-.5747-.5415zm.1323 1.3315h.8848v4.5029h-.8848z"/><path d="m9.1307 2.0713c1.0132 0 1.6748.4712 1.7612 1.2651h-.8516c-.083-.3306-.4053-.5415-.9097-.5415-.4966 0-.8726.2354-.8726.5869 0 .269.2275.4385.7153.5503l.7485.1733c.856.1987 1.2568.5669 1.2568 1.2285 0 .8477-.7896 1.4141-1.8647 1.4141-1.0713 0-1.77-.4839-1.8486-1.2817h.8892c.1118.3472.4424.562.98.562.5542 0 .9473-.248.9473-.6079 0-.2686-.2109-.4424-.6621-.5498l-.7856-.1821c-.856-.2026-1.2529-.5869-1.2529-1.2568 0-.7984.7319-1.3604 1.7495-1.3604z"/><path d="m13.346 1.0371v1.1416h.9756v.7485h-.9756v2.3154c0 .4717.1943.6782.6367.6782.1362 0 .2148-.0083.3389-.0205v.7402c-.1445.0244-.3101.0454-.4839.0454-.9883 0-1.3809-.3477-1.3809-1.2158v-2.543h-.7153v-.7485h.7153v-1.1415z"/><path d="m19.2532 5.4453c-.2026.8066-.9224 1.3027-1.9517 1.3027-1.2905 0-2.0801-.8848-2.0801-2.3242 0-1.439.8062-2.3525 2.0757-2.3525 1.2529 0 2.0098.856 2.0098 2.27v.3101h-3.1802v.0498c.0293.7896.4883 1.29 1.1992 1.29.5376 0 .9058-.1943 1.0713-.5459zm-3.1264-1.4512h2.2744c-.0205-.707-.4507-1.1665-1.1079-1.1665-.6577 0-1.1167.4634-1.1665 1.1665z"/><path d="m20.4993 2.1582h.856v.7153h.0664c.2188-.5005.6655-.8022 1.3438-.8022 1.0049 0 1.5591.6035 1.5591 1.6748v2.915h-.8892v-2.6919c0-.7236-.3145-1.0835-.9717-1.0835-.6577 0-1.0752.4385-1.0752 1.1411v2.6343h-.8892z"/><path d="m27.9183 4.4077c0-1.4517.8105-2.3364 2.1255-2.3364 1.3105 0 2.1211.8848 2.1211 2.3364 0 1.4595-.8062 2.3403-2.1211 2.3403-1.3194 0-2.1255-.8808-2.1255-2.3403zm3.333 0c0-.9761-.4385-1.5469-1.2075-1.5469-.7734 0-1.2075.5708-1.2075 1.5469 0 .9839.4341 1.5503 1.2075 1.5503.769 0 1.2075-.5703 1.2075-1.5503z"/><path d="m33.3572 2.1582h.856v.7153h.0664c.2192-.5005.6655-.8022 1.3438-.8022 1.0049 0 1.5591.6035 1.5591 1.6748v2.915h-.8892v-2.6919c0-.7236-.3145-1.0835-.9717-1.0835-.6577 0-1.0752.4385-1.0752 1.1411v2.6343h-.8892z"/></g></g></svg>

<svg xmlns="http://www.w3.org/2000/svg" xmlns:xlink="http://www.w3.org/1999/xlink" width="167" height="44" version="1.1" viewBox="0 0 167 44"><title>badges/spotify-badge</title><g id="Page-1" fill="none" fill-rule="evenodd" stroke="none" stroke-width="1"><g id="badges/spotify-badge" fill-rule="nonzero" transform="translate(1.000000, 1.000000)"><g id="Group" fill="#FFF" stroke="#9AA0A6" stroke-width=".5"><g id="Rectangle"><rect width="165" height="42" x="0" y="0" rx="8"/></g></g><g id="wordmark" fill="#1ED760" transform="translate(43.000000, 18.000000)"><path id="Combined-Shape" d="M5.49757274,6.11293841 C8.25803163,6.78796949 9.38377839,7.8358118 9.38377839,9.73043661 C9.38377839,11.9721888 7.68027271,13.4207322 5.04407749,13.4207322 C3.18057947,13.4207322 1.45388143,12.7548404 0.0496762129,11.4944358 C-0.0103405401,11.441177 -0.0169220721,11.349156 0.035102981,11.287546 L1.27555477,9.80307648 C1.30094049,9.77235027 1.33745201,9.75375699 1.3772543,9.75044803 C1.4151761,9.7482421 1.45623201,9.76021746 1.486162,9.7860589 C2.69292328,10.8368951 3.77181455,11.2848673 5.09422228,11.2848673 C6.28499938,11.2848673 7.02494501,10.7667762 7.02494501,9.93338713 C7.02494501,9.18114664 6.65904592,8.76059161 4.4909193,8.2584152 C1.94357466,7.63932164 0.4694805,6.83728898 0.4694805,4.57221643 C0.4694805,2.45998701 2.17831409,0.983711176 4.62474319,0.983711176 C6.28860313,0.983711176 7.71208318,1.47958479 8.97619642,2.49953707 C9.0374669,2.54901423 9.049847,2.63788378 9.00440314,2.70248759 L7.89808788,4.27062693 C7.87473931,4.30371663 7.83979451,4.32546131 7.80014877,4.33144899 C7.76050415,4.33775179 7.72023177,4.32814004 7.68810797,4.30403186 C6.62582607,3.50767165 5.61290509,3.12083668 4.59120889,3.12083668 C3.53723279,3.12083668 2.82831377,3.6301038 2.82831377,4.38722895 C2.82831377,5.18831615 3.23182032,5.56963623 5.49757274,6.11293841 Z M17.2616496,8.65218332 C17.2616496,7.0780563 16.2590716,5.9359871 14.8783716,5.9359871 C13.4910896,5.9359871 12.4446355,7.10326761 12.4446355,8.65218332 C12.4446355,10.2012566 13.4910896,11.3683795 14.8783716,11.3683795 C16.2816363,11.3683795 17.2616496,10.2519942 17.2616496,8.65218332 Z M15.3480068,3.86598647 C17.4711601,3.86598647 19.620483,5.50991707 19.620483,8.65218332 C19.620483,11.7938192 17.4711601,13.4372771 15.3480068,13.4372771 C14.2056507,13.4372771 13.2682602,13.0112071 12.4952497,12.1388982 L12.4952497,15.7995705 C12.4952497,15.8819798 12.4288077,15.9491048 12.3468536,15.9491048 L10.3181906,15.9491048 C10.2362365,15.9491048 10.1699517,15.8819798 10.1699517,15.7995705 L10.1699517,4.20208381 C10.1699517,4.11967462 10.2362365,4.05254964 10.3181906,4.05254964 L12.3468536,4.05254964 C12.4288077,4.05254964 12.4952497,4.11967462 12.4952497,4.20208381 L12.4952497,5.24582926 C13.268103,4.31852828 14.2053374,3.86598647 15.3480068,3.86598647 Z M25.1298057,11.385082 C26.5981018,11.385082 27.6638314,10.2505761 27.6638314,8.68637604 C27.6638314,7.12737579 26.5600238,5.95237434 25.0962714,5.95237434 C23.6375343,5.95237434 22.5790134,7.08782573 22.5790134,8.65218332 C22.5790134,10.2100805 23.6754562,11.385082 25.1298057,11.385082 Z M25.1298057,3.86598647 C27.8550075,3.86598647 29.9889732,5.96828901 29.9889732,8.65218332 C29.9889732,11.3450592 27.840277,13.4550826 25.0962714,13.4550826 C22.3807858,13.4550826 20.253401,11.3601859 20.253401,8.68637604 C20.253401,5.98310054 22.3955152,3.86598647 25.1298057,3.86598647 Z M35.8279969,4.05254964 C35.9099522,4.05254964 35.9759236,4.11967462 35.9759236,4.20208381 L35.9759236,5.95536818 C35.9759236,6.03761992 35.9099522,6.10474479 35.8279969,6.10474479 L33.5954666,6.10474479 L33.5954666,10.3217978 C33.5954666,10.9878474 33.8859912,11.2848673 34.5367741,11.2848673 C34.9590855,11.2848673 35.336893,11.1936342 35.7277084,10.9958834 C35.7729951,10.9733509 35.8279969,10.974769 35.8721875,11.002659 C35.9159064,11.029761 35.9427026,11.0782927 35.9427026,11.1298181 L35.9427026,12.7994327 C35.9427026,12.8526914 35.9138692,12.9027988 35.8676426,12.9287979 C35.2986578,13.253235 34.6948865,13.404345 33.9671627,13.404345 C32.1774713,13.404345 31.2700103,12.474838 31.2700103,10.6415079 L31.2700103,6.10474479 L30.2945418,6.10474479 C30.2127437,6.10474479 30.1467723,6.03761992 30.1467723,5.95536818 L30.1467723,4.20208381 C30.1467723,4.11967462 30.2127437,4.05254964 30.2945418,4.05254964 L31.2700103,4.05254964 L31.2700103,1.75738112 C31.2700103,1.67497193 31.3367656,1.60800451 31.4188769,1.60800451 L33.4473827,1.60800451 C33.5293379,1.60800451 33.5954666,1.67497193 33.5954666,1.75738112 L33.5954666,4.05254964 L35.8279969,4.05254964 Z M43.6062063,4.06153116 L47.0719805,4.06153116 C47.1335654,4.06153116 47.1888805,4.09966319 47.2105053,4.15764898 L49.5803071,10.3758444 L51.74389,4.16174584 C51.7645748,4.10186913 51.8213005,4.06153116 51.8844509,4.06153116 L53.9964785,4.06153116 C54.0456833,4.06153116 54.0906566,4.08595457 54.1185489,4.12629254 C54.1465996,4.16726085 54.1517699,4.21910139 54.1342195,4.26511192 L50.6145395,13.4104902 C49.8844652,15.298182 49.0564528,16 47.5583834,16 C46.7576367,16 46.1095187,15.833133 45.3916672,15.4422012 C45.323032,15.4050146 45.2951386,15.3208721 45.3278891,15.2491776 L46.0154967,13.7322487 C46.0319511,13.6942743 46.0645454,13.6654389 46.1032501,13.6515727 C46.1424253,13.6394398 46.1852053,13.6427487 46.2214034,13.6627601 C46.6062635,13.8745346 46.9826605,13.98184 47.3400976,13.98184 C47.78231,13.98184 48.1062129,13.8356148 48.4356005,13.1005495 L45.5339519,6.10474479 L43.6397406,6.10474479 L43.6397406,13.1024403 C43.6397406,13.1848496 43.5729853,13.251817 43.4910301,13.251817 L41.4623682,13.251817 C41.3805702,13.251817 41.3144415,13.1848496 41.3144415,13.1024403 L41.3144415,6.10474479 L40.3397569,6.10474479 C40.2579577,6.10474479 40.1908903,6.03761992 40.1908903,5.95536818 L40.1908903,4.19310228 C40.1908903,4.11085065 40.2579577,4.04372568 40.3397569,4.04372568 L41.3144415,4.04372568 L41.3144415,3.6119832 C41.3144415,1.60564102 42.3047978,0.544562872 44.1787949,0.544562872 C44.9488283,0.544562872 45.4631235,0.668097933 45.8650634,0.788166477 C45.9279005,0.807547554 45.9698967,0.865848567 45.9698967,0.931397845 L45.9698967,2.65048938 C45.9698967,2.69839084 45.9478025,2.74361346 45.9086262,2.77181851 C45.8705482,2.80002366 45.8216567,2.80742937 45.7748035,2.79261784 C45.394331,2.66498591 45.0546015,2.58052823 44.6316635,2.58052823 C43.9224311,2.58052823 43.6062063,2.95034562 43.6062063,3.77963797 L43.6062063,4.06153116 Z M39.096954,4.05254964 C39.1787531,4.05254964 39.2455073,4.11967462 39.2455073,4.20208381 L39.2455073,13.1024403 C39.2455073,13.1848496 39.1787531,13.251817 39.096954,13.251817 L37.068136,13.251817 C36.9861808,13.251817 36.9195827,13.1848496 36.9195827,13.1024403 L36.9195827,4.20208381 C36.9195827,4.11967462 36.9861808,4.05254964 37.068136,4.05254964 L39.096954,4.05254964 Z M38.0928093,0 C38.8962187,0 39.5477854,0.654389309 39.5477854,1.46256721 C39.5477854,2.27106023 38.8962187,2.92607977 38.0928093,2.92607977 C37.2892416,2.92607977 36.6368922,2.27106023 36.6368922,1.46256721 C36.6368922,0.654389309 37.2892416,0 38.0928093,0 Z M55.9492965,4.93793696 L55.5776004,4.93793696 L55.5776004,5.41458705 L55.9492965,5.41458705 C56.1348318,5.41458705 56.2456204,5.3233539 56.2456204,5.17602567 C56.2456204,5.02097649 56.1348318,4.93793696 55.9492965,4.93793696 Z M56.1903042,5.61785269 L56.5941252,6.18636618 L56.2536118,6.18636618 L55.8900632,5.66496625 L55.5776004,5.66496625 L55.5776004,6.18636618 L55.2925594,6.18636618 L55.2925594,4.6795217 L55.9608927,4.6795217 C56.3089281,4.6795217 56.5380261,4.85852161 56.5380261,5.16011111 C56.5380261,5.40718123 56.3960537,5.55813354 56.1903042,5.61785269 Z M55.8737671,4.17797563 C55.1424395,4.17797563 54.588968,4.76256124 54.588968,5.47840296 C54.588968,6.19377201 55.1385213,6.77063679 55.8662452,6.77063679 C56.5974156,6.77063679 57.1513565,6.18636618 57.1513565,5.47020934 C57.1513565,4.75468274 56.6014899,4.17797563 55.8737671,4.17797563 Z M55.8662452,6.91418327 C55.0633052,6.91418327 54.4385347,6.26578165 54.4385347,5.47840296 C54.4385347,4.69086683 55.0714538,4.03521694 55.8737671,4.03521694 C56.6765498,4.03521694 57.3014776,4.68346101 57.3014776,5.47020934 C57.3014776,6.25758792 56.669029,6.91418327 55.8662452,6.91418327 Z"/></g><path id="../icons/spotify-icon" fill="#1ED760" d="M21.0000836,7 C28.7321941,7 35,13.2678433 35,20.9998328 C35,28.7323239 28.7321941,35 21.0000836,35 C13.2681403,35 7,28.7323239 7,20.9998328 C7,13.2678433 13.2681403,7 21.0000836,7 Z M13.6925632,24.6701978 C13.2121554,24.7824389 12.9128178,25.2725523 13.0227228,25.7644166 C13.1321159,26.2561058 13.6097931,26.5644623 14.0891768,26.451696 C19.0639144,25.2856849 23.2880894,25.7610896 26.644288,27.8656528 C27.06377,28.1290077 27.6122712,27.993478 27.8689437,27.5614988 C28.1257869,27.1307455 27.9935255,26.5677893 27.5735314,26.3046094 C23.8065543,23.9428199 19.1366155,23.3931715 13.6925632,24.6701978 Z M12.7735871,19.8498616 C12.1982411,20.0375531 11.8730021,20.6882168 12.0468079,21.3054536 C12.2217825,21.9214389 12.8306875,22.2694726 13.4072023,22.0830324 C17.8525261,20.6383445 23.5821103,21.3546108 27.3395568,23.8274904 C27.8519586,24.16462 28.522806,23.99248 28.8388623,23.4431698 C29.1539168,22.8951107 28.9926329,22.1765206 28.480231,21.838676 C24.1646355,18.9991725 17.8518582,18.2001432 12.7735871,19.8498616 Z M11.9326581,15.8482788 C11.2380147,16.0509247 10.8464915,16.7553529 11.0568473,17.4222481 C11.2672029,18.0888212 12.0012669,18.4651176 12.6954069,18.2629549 C17.0180978,17.0031029 24.4872327,17.2405434 29.0154146,19.8229098 C29.6382619,20.1789095 30.4452962,19.9812572 30.8156831,19.3816958 C31.1859023,18.783101 30.9810823,18.0087616 30.3565576,17.652762 C25.1436295,14.6812122 16.8948033,14.4018893 11.9326581,15.8482788 Z"/><g id="Listen-On" fill="#5F6368" transform="translate(44.000000, 7.750000)"><polygon id="Path" points="3.958 6.661 .236 6.661 .236 .694 1.162 .694 1.162 5.809 3.958 5.809"/><path id="Shape" d="M5.0345,0.8267 C5.0345,0.5162 5.2786,0.2808 5.6092,0.2808 C5.9403,0.2808 6.1839,0.5162 6.1839,0.8267 C6.1839,1.1324 5.9402,1.3682 5.6092,1.3682 C5.2786,1.3682 5.0345,1.1323 5.0345,0.8267 Z M5.1668,2.1582 L6.0516,2.1582 L6.0516,6.6611 L5.1668,6.6611 L5.1668,2.1582 Z"/><path id="Path" d="M9.1307,2.0713 C10.1439,2.0713 10.8055,2.5425 10.8919,3.3364 L10.0403,3.3364 C9.9573,3.0058 9.635,2.7949 9.1306,2.7949 C8.634,2.7949 8.258,3.0303 8.258,3.3818 C8.258,3.6508 8.4855,3.8203 8.9733,3.9321 L9.7218,4.1054 C10.5778,4.3041 10.9786,4.6723 10.9786,5.3339 C10.9786,6.1816 10.189,6.748 9.1139,6.748 C8.0426,6.748 7.3439,6.2641 7.2653,5.4663 L8.1545,5.4663 C8.2663,5.8135 8.5969,6.0283 9.1345,6.0283 C9.6887,6.0283 10.0818,5.7803 10.0818,5.4204 C10.0818,5.1518 9.8709,4.978 9.4197,4.8706 L8.6341,4.6885 C7.7781,4.4859 7.3812,4.1016 7.3812,3.4317 C7.3812,2.6333 8.1131,2.0713 9.1307,2.0713 Z"/><path id="Path" d="M13.346,1.0371 L13.346,2.1787 L14.3216,2.1787 L14.3216,2.9272 L13.346,2.9272 L13.346,5.2426 C13.346,5.7143 13.5403,5.9208 13.9827,5.9208 C14.1189,5.9208 14.1975,5.9125 14.3216,5.9003 L14.3216,6.6405 C14.1771,6.6649 14.0115,6.6859 13.8377,6.6859 C12.8494,6.6859 12.4568,6.3382 12.4568,5.4701 L12.4568,2.9271 L11.7415,2.9271 L11.7415,2.1786 L12.4568,2.1786 L12.4568,1.0371 L13.346,1.0371 Z"/><path id="Shape" d="M19.2532,5.4453 C19.0506,6.2519 18.3308,6.748 17.3015,6.748 C16.011,6.748 15.2214,5.8632 15.2214,4.4238 C15.2214,2.9848 16.0276,2.0713 17.2971,2.0713 C18.55,2.0713 19.3069,2.9273 19.3069,4.3413 L19.3069,4.6514 L16.1267,4.6514 L16.1267,4.7012 C16.156,5.4908 16.615,5.9912 17.3259,5.9912 C17.8635,5.9912 18.2317,5.7969 18.3972,5.4453 L19.2532,5.4453 Z M16.1268,3.9941 L18.4012,3.9941 C18.3807,3.2871 17.9505,2.8276 17.2933,2.8276 C16.6356,2.8276 16.1766,3.291 16.1268,3.9941 Z"/><path id="Path" d="M20.4993,2.1582 L21.3553,2.1582 L21.3553,2.8735 L21.4217,2.8735 C21.6405,2.373 22.0872,2.0713 22.7655,2.0713 C23.7704,2.0713 24.3246,2.6748 24.3246,3.7461 L24.3246,6.6611 L23.4354,6.6611 L23.4354,3.9692 C23.4354,3.2456 23.1209,2.8857 22.4637,2.8857 C21.806,2.8857 21.3885,3.3242 21.3885,4.0268 L21.3885,6.6611 L20.4993,6.6611 L20.4993,2.1582 Z"/><path id="Shape" d="M27.9183,4.4077 C27.9183,2.956 28.7288,2.0713 30.0438,2.0713 C31.3543,2.0713 32.1649,2.9561 32.1649,4.4077 C32.1649,5.8672 31.3587,6.748 30.0438,6.748 C28.7244,6.748 27.9183,5.8672 27.9183,4.4077 Z M31.2513,4.4077 C31.2513,3.4316 30.8128,2.8608 30.0438,2.8608 C29.2704,2.8608 28.8363,3.4316 28.8363,4.4077 C28.8363,5.3916 29.2704,5.958 30.0438,5.958 C30.8128,5.958 31.2513,5.3877 31.2513,4.4077 Z"/><path id="Path" d="M33.3572,2.1582 L34.2132,2.1582 L34.2132,2.8735 L34.2796,2.8735 C34.4988,2.373 34.9451,2.0713 35.6234,2.0713 C36.6283,2.0713 37.1825,2.6748 37.1825,3.7461 L37.1825,6.6611 L36.2933,6.6611 L36.2933,3.9692 C36.2933,3.2456 35.9788,2.8857 35.3216,2.8857 C34.6639,2.8857 34.2464,3.3242 34.2464,4.0268 L34.2464,6.6611 L33.3572,6.6611 L33.3572,2.1582 Z"/></g></g></g></svg>
